; generated by PrusaSlicer 2.7.2 on 2024-03-30 at 19:36:04 UTC

; 

; external perimeters extrusion width = 0.23mm
; perimeters extrusion width = 0.23mm
; infill extrusion width = 0.23mm
; solid infill extrusion width = 0.23mm
; top infill extrusion width = 0.20mm
; first layer extrusion width = 0.40mm

M190 S60 ; set bed temperature and wait for it to be reached
M104 S220 ; set temperature
;TYPE:Custom
G28 ; home all axes
G1 Z5 F5000 ; lift nozzle
M109 S220 ; set temperature and wait for it to be reached
G21 ; set units to millimeters
G90 ; use absolute coordinates
M82 ; use absolute distances for extrusion
G92 E0
; Filament gcode
M107
;LAYER_CHANGE
;Z:0.2
;HEIGHT:0.2
G1 E-2 F2400
G1 Z.2 F7800
G1 X51.948 Y51.547
G1 E0 F2400
;TYPE:Skirt/Brim
;WIDTH:0.4
G1 F900
G1 X52.478 Y51.013 E.02256
G1 X54.258 Y49.784 E.08743
G1 X56.233 Y48.902 E.15229
G1 X58.336 Y48.399 E.21713
G1 X59.504 Y48.291 E.25231
G1 X61.664 Y48.399 E.31717
G1 X63.767 Y48.902 E.38201
G1 X65.742 Y49.784 E.44687
G1 X67.522 Y51.013 E.51174
G1 X68.255 Y51.681 E.54148
G1 X69.073 Y52.584 E.57802
G1 X70.261 Y54.337 E.64152
G1 X70.703 Y55.225 E.67127
G1 X71.398 Y57.273 E.73613
G1 X71.705 Y59.413 E.80096
G1 X71.613 Y61.574 E.86582
G1 X71.126 Y63.681 E.93067
G1 X70.261 Y65.663 E.99552
G1 X69.045 Y67.452 E1.06039
G1 X67.522 Y68.987 E1.12523
G1 X65.742 Y70.216 E1.1901
G1 X64.692 Y70.739 E1.22528
G1 X62.639 Y71.419 E1.29014
G1 X60.496 Y71.709 E1.35499
G1 X58.336 Y71.601 E1.41985
G1 X56.233 Y71.098 E1.48469
G1 X54.258 Y70.216 E1.54955
G1 X52.478 Y68.987 E1.61442
G1 X51.745 Y68.319 E1.64416
G1 X50.927 Y67.416 E1.6807
G1 X49.74 Y65.663 E1.74419
G1 X49.297 Y64.775 E1.77395
G1 X48.602 Y62.727 E1.83881
G1 X48.295 Y60.587 E1.90364
G1 X48.387 Y58.426 E1.9685
G1 X48.874 Y56.319 E2.03335
G1 X49.739 Y54.337 E2.0982
G1 X50.955 Y52.548 E2.16307
G1 X51.927 Y51.568 E2.20446
G1 E.20446 F2400
G92 E0
G1 X51.927 Y51.568 F7800
G1 X62.013 Y55.998
G1 E2 F2400
;TYPE:Perimeter
;WIDTH:0.35088
G1 F900
G1 X62.792 Y56.5 E2.02397
;WIDTH:0.348484
G1 X63.302 Y56.97 E2.04177
G1 X63.472 Y57.18 E2.0487
;WIDTH:0.353104
G1 X63.801 Y57.63 E2.06322
G1 X64.182 Y58.395 E2.08548
G1 X64.408 Y59.19 E2.10701
;WIDTH:0.348546
G1 X64.485 Y60.014 E2.12825
;WIDTH:0.342421
G1 X64.474 Y60.137 E2.13136
;WIDTH:0.351126
G1 X64.406 Y60.809 E2.14884
G1 X64.333 Y61.107 E2.15678
;WIDTH:0.352975
G1 X64.182 Y61.605 E2.17033
G1 X63.801 Y62.37 E2.19258
G1 X63.303 Y63.03 E2.21411
;WIDTH:0.347928
G1 X62.579 Y63.658 E2.23866
;WIDTH:0.349289
G1 X62.014 Y64.003 E2.25569
G1 X61.673 Y64.142 E2.26516
;WIDTH:0.352241
G1 X61.172 Y64.32 E2.27897
;WIDTH:0.352363
G1 X60.399 Y64.462 E2.29939
G1 X59.572 Y64.462 E2.32088
;WIDTH:0.34611
G1 X58.867 Y64.332 E2.33913
;WIDTH:0.342426
G1 X58.615 Y64.254 E2.34577
;WIDTH:0.353224
G1 X58.016 Y64.016 E2.36257
G1 X57.711 Y63.841 E2.37173
;WIDTH:0.353456
G1 X57.289 Y63.566 E2.38487
G1 X56.68 Y63.007 E2.40643
;WIDTH:0.351992
G1 X56.188 Y62.361 E2.42751
;WIDTH:0.345876
G1 X55.843 Y61.671 E2.44714
;WIDTH:0.343469
G1 X55.759 Y61.422 E2.45377
;WIDTH:0.351087
G1 X55.599 Y60.837 E2.46947
G1 X55.557 Y60.503 E2.47818
;WIDTH:0.354713
G1 X55.522 Y59.986 E2.49175
G1 X55.599 Y59.163 E2.51339
;WIDTH:0.351019
G1 X55.839 Y58.337 E2.53565
;WIDTH:0.345338
G1 X56.181 Y57.652 E2.5551
G1 X56.337 Y57.435 E2.56189
;WIDTH:0.337939
G1 X56.85 Y56.824 E2.58166
;WIDTH:0.353639
G1 X57.312 Y56.417 E2.59773
G1 X58.016 Y55.983 E2.61931
;WIDTH:0.350434
G1 X58.834 Y55.674 E2.64189
;WIDTH:0.346195
G1 X59.572 Y55.538 E2.661
G1 X59.859 Y55.531 E2.66831
;WIDTH:0.337771
G1 X60.65 Y55.575 E2.68793
;WIDTH:0.351646
G1 X61.198 Y55.687 E2.70243
G1 X61.985 Y55.987 E2.72427
G1 X61.985 Y55.987 F7800
G1 X62.148 Y55.691
;WIDTH:0.399999
G1 F900
G1 X62.902 Y56.157 E2.75085
G1 X63.559 Y56.756 E2.77751
G1 X64.067 Y57.429 E2.8028
G1 X64.503 Y58.304 E2.83212
G1 X64.738 Y59.16 E2.85874
G1 X64.811 Y60.044 E2.88534
G1 X64.734 Y60.885 E2.91067
G1 X64.49 Y61.74 E2.93733
G1 X64.094 Y62.535 E2.96396
G1 X63.559 Y63.244 E2.9906
G1 X62.902 Y63.843 E3.01726
G1 X62.148 Y64.309 E3.04384
G1 X61.275 Y64.64 E3.07184
G1 X60.444 Y64.795 E3.09719
G1 X59.556 Y64.795 E3.12382
G1 X58.682 Y64.632 E3.15048
G1 X57.854 Y64.311 E3.17711
G1 X57.098 Y63.843 E3.20377
G1 X56.441 Y63.244 E3.23043
G1 X55.906 Y62.535 E3.25707
G1 X55.51 Y61.74 E3.2837
G1 X55.266 Y60.885 E3.31036
G1 X55.184 Y60 E3.33701
G1 X55.266 Y59.115 E3.36366
G1 X55.51 Y58.26 E3.39032
G1 X55.906 Y57.465 E3.41695
G1 X56.441 Y56.756 E3.44359
G1 X57.098 Y56.157 E3.47025
G1 X57.854 Y55.689 E3.49691
G1 X58.682 Y55.368 E3.52354
G1 X59.556 Y55.205 E3.5502
G1 X60.444 Y55.205 E3.57683
G1 X61.275 Y55.36 E3.60218
G1 X62.12 Y55.68 E3.62928
G1 X62.12 Y55.68 F7800
G1 X62.307 Y55.369
;TYPE:External perimeter
G1 F900
G1 X63.118 Y55.871 E3.65788
G1 X63.824 Y56.514 E3.68652
G1 X64.352 Y57.214 E3.71281
G1 X64.61 Y57.7 E3.72931
G1 X64.846 Y58.206 E3.74605
G1 X65.093 Y59.127 E3.77465
G1 X65.167 Y60.077 E3.80323
G1 X65.086 Y60.951 E3.82955
G1 X64.825 Y61.869 E3.85817
G1 X64.399 Y62.724 E3.88682
G1 X63.824 Y63.486 E3.91545
G1 X63.118 Y64.129 E3.94409
G1 X62.307 Y64.631 E3.97269
G1 X61.372 Y64.985 E4.00267
G1 X60.477 Y65.152 E4.02997
G1 X59.523 Y65.152 E4.05858
G1 X58.584 Y64.977 E4.08722
G1 X57.694 Y64.632 E4.11584
G1 X56.882 Y64.129 E4.14448
G1 X56.176 Y63.486 E4.17312
G1 X55.601 Y62.724 E4.20175
G1 X55.175 Y61.869 E4.2304
G1 X54.914 Y60.951 E4.25902
G1 X54.826 Y60 E4.28766
G1 X54.914 Y59.049 E4.3163
G1 X55.175 Y58.131 E4.34492
G1 X55.601 Y57.276 E4.37357
G1 X56.176 Y56.514 E4.4022
G1 X56.882 Y55.871 E4.43084
G1 X57.694 Y55.368 E4.45948
G1 X58.584 Y55.023 E4.4881
G1 X59.523 Y54.848 E4.51674
G1 X60.477 Y54.848 E4.54535
G1 X61.372 Y55.015 E4.57265
G1 X62.279 Y55.358 E4.60173
G1 X62.452 Y55.459 F7800
G1 E2.60173 F2400
G92 E0
G1 X55.951 Y60.956 F7800
G1 E2 F2400
;TYPE:Perimeter
;WIDTH:0.351087
G1 F900
G1 X55.897 Y60.759 E2.00529
G1 X55.842 Y60.396 E2.01479
;WIDTH:0.336362
G1 X55.842 Y59.601 E2.03438
;WIDTH:0.351019
G1 X55.897 Y59.241 E2.0438
G1 X56.044 Y58.655 E2.05943
;WIDTH:0.345338
G1 X56.451 Y57.787 E2.08378
;WIDTH:0.351945
G1 X56.921 Y57.185 E2.1036
G1 X57.208 Y56.892 E2.11424
;WIDTH:0.335999
G1 X57.827 Y56.432 E2.13322
;WIDTH:0.350434
G1 X58.132 Y56.267 E2.14218
G1 X58.706 Y56.026 E2.15826
;WIDTH:0.346195
G1 X59.627 Y55.836 E2.18221
;WIDTH:0.352269
G1 X60.39 Y55.847 E2.20203
G1 X60.811 Y55.902 E2.21306
;WIDTH:0.336268
G1 X61.545 Y56.12 E2.23192
;WIDTH:0.35088
G1 X61.855 Y56.262 E2.24074
G1 X62.425 Y56.597 E2.25784
;WIDTH:0.348484
G1 X63.094 Y57.194 E2.28085
;WIDTH:0.353085
G1 X63.547 Y57.808 E2.30073
G1 X63.781 Y58.222 E2.31312
;WIDTH:0.336637
G1 X64.042 Y58.942 E2.33201
;WIDTH:0.340337
G1 X64.179 Y59.898 E2.35613
;WIDTH:0.351126
G1 X64.1 Y60.776 E2.37895
G1 X64.033 Y61.086 E2.38716
;WIDTH:0.336976
G1 X63.779 Y61.782 E2.40546
;WIDTH:0.352975
G1 X63.547 Y62.192 E2.41773
G1 X63.235 Y62.649 E2.43214
;WIDTH:0.341208
G1 X62.586 Y63.284 E2.45489
;WIDTH:0.349289
G1 X61.856 Y63.74 E2.47704
G1 X61.579 Y63.866 E2.48487
;WIDTH:0.352241
G1 X61.098 Y64.02 E2.49799
G1 X60.617 Y64.133 E2.51083
;WIDTH:0.337699
G1 X59.848 Y64.175 E2.5299
;WIDTH:0.342426
G1 X58.92 Y64.038 E2.5535
;WIDTH:0.353224
G1 X58.134 Y63.729 E2.57551
G1 X57.804 Y63.552 E2.58527
;WIDTH:0.336815
G1 X57.21 Y63.109 E2.60356
;WIDTH:0.337877
G1 X57.065 Y62.974 E2.60847
G1 X56.572 Y62.388 E2.62744
;WIDTH:0.343469
G1 X56.111 Y61.536 E2.65189
;WIDTH:0.351087
G1 X55.959 Y60.985 E2.66668
G1 X55.959 Y60.985 F7800
G1 X56.267 Y60.859
;WIDTH:0.399999
G1 F900
G1 X56.22 Y60.681 E2.6722
G1 X56.167 Y60.396 E2.68089
G1 X56.167 Y59.601 E2.70473
G1 X56.361 Y58.731 E2.73146
G1 X56.746 Y57.936 E2.75795
G1 X57.176 Y57.399 E2.77858
G1 X57.402 Y57.153 E2.7886
G1 X58.021 Y56.693 E2.81173
G1 X58.836 Y56.326 E2.83853
G1 X59.684 Y56.161 E2.86444
G1 X60.372 Y56.18 E2.88508
G1 X60.718 Y56.214 E2.89551
G1 X61.453 Y56.431 E2.91849
G1 X62.261 Y56.88 E2.94621
G1 X62.866 Y57.434 E2.97081
G1 X63.268 Y57.991 E2.99141
G1 X63.475 Y58.333 E3.0034
G1 X63.736 Y59.053 E3.02637
G1 X63.854 Y59.936 E3.05308
G1 X63.77 Y60.735 E3.07717
G1 X63.727 Y60.975 E3.08448
G1 X63.473 Y61.67 E3.10667
G1 X62.996 Y62.424 E3.13343
G1 X62.361 Y63.046 E3.16009
G1 X61.689 Y63.453 E3.18365
G1 X61.485 Y63.555 E3.19049
G1 X60.724 Y63.785 E3.21433
G1 X59.83 Y63.85 E3.24121
G1 X58.977 Y63.714 E3.26711
G1 X58.266 Y63.423 E3.29015
G1 X57.998 Y63.291 E3.29911
G1 X57.314 Y62.764 E3.325
G1 X56.821 Y62.178 E3.34796
G1 X56.405 Y61.387 E3.37476
G1 X56.274 Y60.888 E3.39023
G1 X56.274 Y60.888 F7800
G1 X56.612 Y60.763
;TYPE:External perimeter
G1 F900
G1 X56.524 Y60.397 E3.40152
G1 X56.525 Y59.601 E3.42539
G1 X56.708 Y58.815 E3.44959
G1 X57.065 Y58.096 E3.47366
G1 X57.45 Y57.629 E3.49181
G1 X57.615 Y57.439 E3.49936
G1 X58.234 Y56.98 E3.52247
G1 X58.977 Y56.654 E3.5468
G1 X59.746 Y56.513 E3.57025
G1 X60.617 Y56.556 E3.5964
G1 X61.351 Y56.773 E3.61935
G1 X62.083 Y57.19 E3.64461
G1 X62.62 Y57.693 E3.66667
G1 X63.139 Y58.455 E3.69432
G1 X63.4 Y59.175 E3.71729
G1 X63.499 Y59.978 E3.74155
G1 X63.416 Y60.691 E3.76308
G1 X63.238 Y61.273 E3.78133
G1 X63.119 Y61.585 E3.79134
G1 X62.697 Y62.228 E3.8144
G1 X62.115 Y62.787 E3.8386
G1 X61.509 Y63.145 E3.85971
G1 X60.899 Y63.359 E3.8791
G1 X60.579 Y63.451 E3.88908
G1 X59.81 Y63.494 E3.91218
G1 X59.039 Y63.363 E3.93563
G1 X58.211 Y63.004 E3.96269
G1 X57.587 Y62.534 E3.98612
G1 X57.094 Y61.948 E4.00908
G1 X56.723 Y61.226 E4.03342
G1 X56.619 Y60.792 E4.0468
G1 X56.572 Y60.598 F7800
;LAYER_CHANGE
;Z:0.35
;HEIGHT:0.15
G1 Z.35 F7800
M104 S210 ; set temperature
M140 S50 ; set bed temperature
G1 E2.0468 F2400
G1 Z.35 F7800
G1 X62.173 Y55.636
G1 E4.0468 F2400
;TYPE:Perimeter
;WIDTH:0.224999
G1 F900
G1 X62.938 Y56.11 E4.05773
G1 X63.602 Y56.716 E4.06865
G1 X64.114 Y57.393 E4.07896
G1 X64.559 Y58.288 E4.0911
G1 X64.796 Y59.154 E4.102
G1 X64.87 Y60.05 E4.11292
G1 X64.792 Y60.896 E4.12324
G1 X64.546 Y61.761 E4.13416
G1 X64.145 Y62.566 E4.14508
G1 X63.602 Y63.284 E4.15601
G1 X62.938 Y63.89 E4.16693
G1 X62.173 Y64.364 E4.17786
G1 X61.334 Y64.689 E4.18879
G1 X60.45 Y64.854 E4.19971
G1 X59.55 Y64.854 E4.21064
G1 X58.666 Y64.689 E4.22156
G1 X57.827 Y64.364 E4.23249
G1 X57.062 Y63.89 E4.24342
G1 X56.398 Y63.284 E4.25434
G1 X55.855 Y62.566 E4.26527
G1 X55.454 Y61.761 E4.27619
G1 X55.208 Y60.896 E4.28711
G1 X55.125 Y60 E4.29804
G1 X55.208 Y59.104 E4.30897
G1 X55.454 Y58.239 E4.31989
G1 X55.855 Y57.434 E4.33081
G1 X56.398 Y56.716 E4.34174
G1 X57.062 Y56.11 E4.35266
G1 X57.827 Y55.636 E4.36359
G1 X58.666 Y55.311 E4.37452
G1 X59.55 Y55.146 E4.38544
G1 X60.45 Y55.146 E4.39637
G1 X61.334 Y55.311 E4.40729
G1 X62.145 Y55.625 E4.41785
G1 X62.145 Y55.625 F7800
G1 X62.259 Y55.463
G1 F900
G1 X63.054 Y55.955 E4.4292
G1 X63.746 Y56.585 E4.44056
G1 X64.268 Y57.277 E4.45109
G1 X64.522 Y57.758 E4.4577
G1 X64.745 Y58.235 E4.46409
G1 X64.988 Y59.137 E4.47543
G1 X65.062 Y60.067 E4.48676
G1 X64.982 Y60.931 E4.4973
G1 X64.726 Y61.831 E4.50866
G1 X64.309 Y62.668 E4.52002
G1 X63.746 Y63.415 E4.53138
G1 X63.054 Y64.045 E4.54274
G1 X62.259 Y64.537 E4.55409
G1 X61.387 Y64.875 E4.56545
G1 X60.468 Y65.047 E4.5768
G1 X59.532 Y65.047 E4.58817
G1 X58.613 Y64.875 E4.59952
G1 X57.741 Y64.537 E4.61088
G1 X56.946 Y64.045 E4.62223
G1 X56.254 Y63.415 E4.63359
G1 X55.691 Y62.668 E4.64495
G1 X55.274 Y61.831 E4.65631
G1 X55.018 Y60.931 E4.66767
G1 X54.932 Y60 E4.67902
G1 X55.018 Y59.069 E4.69037
G1 X55.274 Y58.169 E4.70173
G1 X55.691 Y57.332 E4.71309
G1 X56.254 Y56.585 E4.72445
G1 X56.946 Y55.955 E4.73581
G1 X57.741 Y55.463 E4.74716
G1 X58.613 Y55.125 E4.75852
G1 X59.532 Y54.953 E4.76987
G1 X60.468 Y54.953 E4.78124
G1 X61.387 Y55.125 E4.79259
G1 X62.231 Y55.452 E4.80358
G1 X62.231 Y55.452 F7800
G1 X62.352 Y55.294
;TYPE:External perimeter
G1 F900
G1 X63.171 Y55.801 E4.81528
G1 X63.889 Y56.455 E4.82707
G1 X64.422 Y57.161 E4.83781
G1 X64.694 Y57.672 E4.84484
G1 X64.93 Y58.182 E4.85166
G1 X65.18 Y59.119 E4.86344
G1 X65.254 Y60.085 E4.87521
G1 X65.172 Y60.967 E4.88597
G1 X64.907 Y61.901 E4.89776
G1 X64.474 Y62.77 E4.90955
G1 X63.889 Y63.545 E4.92134
G1 X63.171 Y64.199 E4.93313
G1 X62.345 Y64.71 E4.94493
G1 X61.44 Y65.061 E4.95672
G1 X60.486 Y65.24 E4.96851
G1 X59.514 Y65.24 E4.98031
G1 X58.56 Y65.061 E4.9921
G1 X57.655 Y64.71 E5.00389
G1 X56.829 Y64.199 E5.01569
G1 X56.111 Y63.545 E5.02748
G1 X55.526 Y62.77 E5.03927
G1 X55.093 Y61.901 E5.05106
G1 X54.828 Y60.967 E5.06285
G1 X54.738 Y60 E5.07464
G1 X54.828 Y59.033 E5.08643
G1 X55.093 Y58.099 E5.09822
G1 X55.526 Y57.23 E5.11001
G1 X56.111 Y56.455 E5.1218
G1 X56.829 Y55.801 E5.13359
G1 X57.655 Y55.29 E5.14539
G1 X58.56 Y54.939 E5.15718
G1 X59.514 Y54.76 E5.16897
G1 X60.486 Y54.76 E5.18077
G1 X61.44 Y54.939 E5.19256
G1 X62.325 Y55.282 E5.20409
G1 X62.496 Y55.384 F7800
G1 E3.20409 F2400
G92 E0
G1 X56.326 Y60.852 F7800
G1 E2 F2400
;TYPE:Perimeter
G1 F900
G1 X56.276 Y60.665 E2.00235
G1 X56.229 Y60.415 E2.00544
G1 X56.23 Y59.578 E2.0156
G1 X56.424 Y58.73 E2.02616
G1 X56.798 Y57.964 E2.03651
G1 X57.221 Y57.438 E2.04471
G1 X57.441 Y57.197 E2.04867
G1 X58.057 Y56.74 E2.05798
G1 X58.859 Y56.38 E2.06866
G1 X59.695 Y56.218 E2.079
G1 X60.37 Y56.238 E2.0872
G1 X60.682 Y56.267 E2.09101
G1 X61.407 Y56.477 E2.10018
G1 X62.249 Y56.946 E2.11188
G1 X62.821 Y57.476 E2.12135
G1 X62.966 Y57.634 E2.12395
G1 X63.377 Y58.268 E2.13313
G1 X63.681 Y59.077 E2.14363
G1 X63.795 Y59.934 E2.15413
G1 X63.716 Y60.734 E2.16389
G1 X63.518 Y61.376 E2.17205
G1 X63.372 Y61.742 E2.17684
G1 X62.954 Y62.382 E2.18612
G1 X62.337 Y62.989 E2.19663
G1 X61.653 Y63.407 E2.20637
G1 X61.022 Y63.63 E2.2145
G1 X60.579 Y63.75 E2.22007
G1 X59.812 Y63.79 E2.2294
G1 X58.945 Y63.645 E2.24008
G1 X58.302 Y63.368 E2.24858
G1 X57.994 Y63.215 E2.25276
G1 X57.365 Y62.732 E2.26239
G1 X56.877 Y62.155 E2.27157
G1 X56.466 Y61.38 E2.28222
G1 X56.333 Y60.881 E2.28849
G1 X56.333 Y60.881 F7800
G1 X56.516 Y60.799
G1 F900
G1 X56.422 Y60.415 E2.29329
G1 X56.423 Y59.578 E2.30345
G1 X56.611 Y58.776 E2.31345
G1 X56.97 Y58.051 E2.32327
G1 X57.369 Y57.562 E2.33093
G1 X57.556 Y57.352 E2.33434
G1 X58.172 Y56.894 E2.34366
G1 X58.935 Y56.557 E2.35379
G1 X59.729 Y56.408 E2.3636
G1 X60.628 Y56.453 E2.37453
G1 X61.353 Y56.662 E2.38369
G1 X62.153 Y57.113 E2.39484
G1 X62.687 Y57.615 E2.40374
G1 X63.055 Y58.126 E2.41139
G1 X63.244 Y58.432 E2.41576
G1 X63.5 Y59.142 E2.42493
G1 X63.603 Y59.957 E2.43491
G1 X63.525 Y60.712 E2.44413
G1 X63.336 Y61.311 E2.45176
G1 X63.21 Y61.637 E2.456
G1 X62.793 Y62.277 E2.46528
G1 X62.204 Y62.85 E2.47526
G1 X61.555 Y63.241 E2.48446
G1 X60.965 Y63.446 E2.49205
G1 X60.569 Y63.558 E2.49705
G1 X59.802 Y63.598 E2.50638
G1 X58.98 Y63.456 E2.51651
G1 X58.109 Y63.061 E2.52812
G1 X57.512 Y62.607 E2.53723
G1 X57.024 Y62.031 E2.5464
G1 X56.637 Y61.293 E2.55652
G1 X56.523 Y60.828 E2.56233
G1 X56.523 Y60.828 F7800
G1 X56.697 Y60.75
;TYPE:External perimeter
G1 F900
G1 X56.615 Y60.415 E2.56652
G1 X56.616 Y59.578 E2.57668
G1 X56.798 Y58.822 E2.58612
G1 X57.142 Y58.138 E2.59542
G1 X57.516 Y57.686 E2.60254
G1 X57.671 Y57.507 E2.60542
G1 X58.287 Y57.049 E2.61474
G1 X59.012 Y56.734 E2.62434
G1 X59.763 Y56.598 E2.63361
G1 X60.574 Y56.638 E2.64347
G1 X61.3 Y56.848 E2.65265
G1 X62.057 Y57.28 E2.66323
G1 X62.553 Y57.754 E2.67156
G1 X63.063 Y58.497 E2.6825
G1 X63.319 Y59.208 E2.69168
G1 X63.412 Y59.979 E2.70111
G1 X63.333 Y60.69 E2.7098
G1 X63.155 Y61.245 E2.71688
G1 X63.049 Y61.531 E2.72058
G1 X62.631 Y62.172 E2.72987
G1 X62.071 Y62.71 E2.7393
G1 X61.457 Y63.075 E2.74797
G1 X60.559 Y63.365 E2.75943
G1 X59.792 Y63.405 E2.76876
G1 X59.014 Y63.266 E2.77836
G1 X58.224 Y62.906 E2.7889
G1 X57.659 Y62.482 E2.79748
G1 X57.171 Y61.906 E2.80665
G1 X56.809 Y61.205 E2.81623
G1 X56.704 Y60.779 E2.82156
G1 X56.656 Y60.585 F7800
G1 E.82156 F2400
G92 E0
G1 X57.118 Y56.188 F7800
G1 E2 F2400
;TYPE:Solid infill
;WIDTH:0.20219
G1 F1200
G1 X56.484 Y56.793 E2.00938
G1 X56.484 Y56.793 F7800
G1 X55.997 Y57.533
G1 F1200
G1 X55.977 Y57.539 E2.0096
G1 X55.967 Y57.503 E2.01
G1 X56.003 Y57.513 E2.0104
;WIDTH:0.224999
G1 X56.1 Y57.382 E2.01238
G1 X57.369 Y56.113 E2.03417
G1 X57.519 Y56.019 E2.03632
;WIDTH:0.20219
G1 X57.498 Y56.025 E2.03655
G1 X57.489 Y55.989 E2.03695
G1 X57.524 Y55.999 E2.03734
G1 X57.524 Y55.999 F7800
G1 X58.169 Y55.644
